X:2
T:The New Trail
C:Laurence Beaudry 
Z:robin.beech@mcgill.ca
R:reel
M:4/4
L:1/8
K:D
DFAd cdAd | eAAe fddf | gecg fdBe- | ea^ga fdAG |
FGAB Adcd | eAAe fddf | bged cBAG |1 Fdcd Gddc :|2  AFGE D3F |: 
G2BG GBAG | FAde f3a | gece Acec | defb a3A |
GABA GAcA | FABA FADF | GABc dedB | AFGE D4 :|
